SVG/ico__update.svg

<svg xmlns="http://www.w3.org/2000/svg" viewBox="0 0 240 240">
  <polygon points="110 80 110 110 110 124.14 115.86 130 140 154.14 154.14 140 130 115.86 130 80 110 80"/>
  <path d="M190,60v21.27c-13.64-24.61-39.87-41.27-70-41.27-44.18,0-80,35.82-80,80s35.82,80,80,80c37.28,0,68.6-25.5,77.48-60h-20.91c-8.24,23.3-30.45,40-56.57,40-33.14,0-60-26.86-60-60s26.86-60,60-60c26.12,0,48.33,16.7,56.57,40h-26.57v20h60v-60h-20Z"/>
</svg>

<svg width="240" height="240" viewBox="0 0 240 240" fill="none" xmlns="http://www.w3.org/2000/svg">
<path d="M110 80V110V124.14L115.86 130L140 154.14L154.14 140L130 115.86V80H110Z" fill="black"/>
<path d="M190 60V81.27C176.36 56.66 150.13 40 120 40C75.82 40 40 75.82 40 120C40 164.18 75.82 200 120 200C157.28 200 188.6 174.5 197.48 140H176.57C168.33 163.3 146.12 180 120 180C86.86 180 60 153.14 60 120C60 86.86 86.86 60 120 60C146.12 60 168.33 76.7 176.57 100H150V120H210V60H190Z" fill="black"/>
</svg>
